X: 21911
T: THE PARKS OF KILBURNIE -- Strathspey
R: strathspey
B: K\"ohler's Violin Repository, v.2, 1885 p.191 #1
F: http://www.archive.org/details/klersviolinrepos02rugg
Z: 2012 John Chambers <jc:trillian.mit.edu>
N The 2nd part has an open repeat, but no close repeat.
M: C|
L: 1/8
K: F
uF | (A/B/c) (c>f) (a/g/f/e/) (f>d) | cAdA BGGB | (A/B/c) (c>f) (a/g/f/e/) (f>d) | cABG F/F/F F :|
|: uc | (A/B/c) (F>c) dBfd | cAaf gGGc | (A/B/c) (F>c) dBfd | cABG F/F/F "D.C."F :|

%%sep 2 1 500

